X:436
T:Tom Ward's Downfall
T:Mourne Mountains, The
R:reel
Z:id:hn-reel-436
M:C|
K:G
BG~G2 GEDG | EDEG AEGE | DEGA ~B3d | ed~d2 egdc |
BG~G2 GEDG | EDEG AEGE | DEGA ~B3d |1 egdc BGGA :|2 egdc BAGB ||
|: dggf gedg | eaab a2ga | bg~g2 agef | gedc BGGB | 
dggf gedg | eaab a2ga | bg~g2 agef |1 gedc BAGB :|2 gedc BGGA ||
P:variations
|: BGGA GEDG | ~E3G AEGE | DEGA BABd | ed~d2 Bdgd |
BGGA GEDG | ~E3G AEGE | DEGA BABd | egdc BG~G2 :|
|: dgga gedg | eaag adga | bg~g2 agef | gedc BGBd | 
~g3a gedg | eaag a2ga | bg~g2 agef | gedc BG~G2 :|
P:more variations
|: BGGA GEDG | EG~G2 AEGE | DEGA ~B3d | ed~d2 Bdgd |
BGGA GEDG | ~E3G AEGE | DEGA ~B3d |1 ecdc BGGA :|2 ecdc BGBd ||
|: ~g3f gedB | eaag abga | ~b3g agab | gedc BGBd | 
~g3f gedB | eaag abga | bg~g2 agab |1 gedc BGBd :|2 gedc BGGA ||

